X:18
T:En faisant le tour du moulin
R:Rondanse
A:Normandie
O:France
Z:Transcrit et/ou corrig? par Michel BELLON - 2005-09-10
Z:Pour toute observation mailto:galouvielle@free.fr
M:6/8
Q:1/4=104
K:G
V:1
BBB | d3cBA | G3 [P:Intro]BBB|d2 G A3|!breath!G3 BBB| d3 cBA|G3 BBB|d2 G A3| G3 z2
w:En fai-sant le tour du mou-lin j'a-per-?ois la meu-ni?-re En fai-sant le tour du mou-lin j'a-per-?ois la meu-ni?-re 
B|d2 e d2 B| d2 e d2 B|d2 e d2 B|d2 e !breath!Hd2B | c2d e2 e|d2 c HB3|:
w: Qui cul-ti-vait dans son jar-din Qui cul-ti-vait dans son jar-din Rose ? la bou-ton-ni?_re
ddd e2 d|cBc A2A|c2d e2c|ddd G3 :|
w:Je lui ai dit belle en_ pas-sant n'vou-drais tu pas cau-ser un ins-tant~!
V:3 clef=perc stafflines=1  staffscale=0.6 
B2B | B3 B2B | B3 B2B | B3 BBB | B3 B2B | B3 B2B | B3 B2B | B3 BBB | B3 
V:2
x16
x16
x16
x16
x16
x16
x16
<end>
<start>
